packages/ui-icons/svg/Solid/file-locked.svg

<svg viewBox="0 0 1920 1920" version="1.1" xmlns="http://www.w3.org/2000/svg">
    <path d="M764.611765,56 L990.494118,394.823529 L225.882353,394.823529 L225.882353,507.764706 L1920,507.764706 L1920,1011.82118 C1920,1035.65176 1889.16706,1042.54118 1877.64706,1021.76 C1819.59529,917.515294 1708.34824,846.588235 1581.17647,846.588235 C1394.82353,846.588235 1242.35294,999.058824 1242.35294,1185.41176 L1242.35294,1185.41176 L1174.58824,1185.41176 C1149.62824,1185.41176 1129.41176,1205.62824 1129.41176,1230.58824 L1129.41176,1230.58824 L1129.41176,1693.64706 C1129.41176,1712.84706 1131.67059,1732.04706 1135.05882,1750.11765 L1135.05882,1750.11765 L169.411765,1750.11765 C75.8964706,1750.11765 0,1674.33412 0,1580.70588 L0,1580.70588 L0,56 L764.611765,56 Z M1581.17647,1072.47059 C1643.40706,1072.47059 1694.11765,1123.18118 1694.11765,1185.41176 L1694.11765,1298.35294 L1468.23529,1298.35294 L1468.23529,1185.41176 C1468.23529,1123.18118 1518.94588,1072.47059 1581.17647,1072.47059 Z M1807.05882,1185.41176 C1807.05882,1060.83765 1705.86353,959.529412 1581.17647,959.529412 C1456.48941,959.529412 1355.29412,1060.83765 1355.29412,1185.41176 L1355.29412,1298.35294 L1242.35294,1298.35294 L1242.35294,1693.64706 C1242.35294,1787.04941 1318.36235,1863.05882 1411.76471,1863.05882 L1750.58824,1863.05882 C1843.99059,1863.05882 1920,1787.04941 1920,1693.64706 L1920,1298.35294 L1807.05882,1298.35294 L1807.05882,1185.41176 Z" stroke="none" stroke-width="1" fill-rule="evenodd"/>
</svg>

<svg viewBox="0 0 1920 1920" version="1.1" xmlns="http://www.w3.org/2000/svg">
    <path d="M225.882 507.765H1920v504.056c0 23.83-30.833 30.72-42.353 9.939-58.052-104.245-169.299-175.172-296.47-175.172-186.353 0-338.824 152.47-338.824 338.824h-67.765c-24.96 0-45.176 20.216-45.176 45.176v463.06c0 19.2 2.259 38.4 5.647 56.47H169.412C75.896 1750.118 0 1674.334 0 1580.706V56h764.612l225.882 338.824H225.882v112.94zm1468.236 790.588h-225.883v-112.941c0-62.23 50.71-112.941 112.941-112.941s112.942 50.71 112.942 112.94v112.942zm112.94-112.941c0-124.574-101.194-225.883-225.882-225.883-124.687 0-225.882 101.309-225.882 225.883v112.94h-112.941v395.295c0 93.402 76.01 169.412 169.412 169.412h338.823c93.403 0 169.412-76.01 169.412-169.412v-395.294h-112.941v-112.941z" stroke="none" stroke-width="1" fill-rule="evenodd"/>
</svg>
